X: 1
T: Major Molle (of the 9th Regiment of Foot)
C: Andrew Gow
N: Andrew Gow (1760-1803) was the son of Neil Gow
B: Gow's 5th Collection, 1809
R: strathspey
Z: 2017 John Chambers <jc:trillian.mit.edu>
M: C
L: 1/8
K: Ador
|:\
"Am"A<ee>d c>dB>c | A<ee>d c2B<c |\
[1 A<ee>f "(C)"g>fg>e | "G"d>BG>B "E(m)"e>dc>B :|
[2 A<ee>f "(C)"g/f/e/f/ g>e | "G"d>BG>B "E(m)"e>dcB :|\
|:\
"Am"A<EE2 A>Ec>B | A<EE2 c2B<c |
[1 "Am"A<E E2 "(C)"e>fg>e | "G"d>BG>B "E(m)"e>dc>B :|\
[2 "Am"A<Ee>f "(C)"g/f/e/f/ g>e | "G"d>BG>B "E(m)"e>dcB |]
